X: 26189
T: McMahon's
R: jig
M: 6/8
K: Amajor
c/B/|AEc AEc|AEc A2 c|edc cBA|GBG E2 c/B/|
AEc AEc|AEc A2 c|edc cBA|A2 c A3||
edc edc|eee e2 a|gbg efg|aec A2 f|
edc edc|eee e2 a|g2 e f2 ^d|efd cdB||
A2 c BAG|A2 B cde|f2 e edc|cBB B2 E|
A2 c BAG|A2 B cde|f2 e e2 ^d|efd cdB||

